X: 10541
T: HIGHLAND FLING
C: Arranged by W. B. Laybourn
R: fling
B: K\"ohler's Violin Repository, v.1, 1885 p.54 #1
F: http://www.archive.org/details/klersviolinrepos01edin
Z: 2011 John Chambers <jc:trillian.mit.edu>
M: C|
L: 1/8
K: D
uA/ |\
d<d (f>d) (g>e) f>d | B<B (e>d) (c>A) A>c |\
d<d (f>d) (g>e) f>d | (3Bcd (3efg (3fdA (3FAc |
d<d (f>d) (g>e) f>d | B<B (e>d) (c>A) A>c |\
d<d (f>d) (g>e) f>d | (3Bcd (3efg f<dd> |: uB |
A<D (G/F/)E/D/ (FA)df | {a}gefd ed B<d |\
A<D (G/F/)E/D/ (FA)g>b | a<f (e>f) d2 "^D.C.""_Segue Reel."d> :|

%%sep 2 1 500

